img/seta.svg

<svg width="144" height="144" viewBox="0 0 144 144" fill="none" xmlns="http://www.w3.org/2000/svg">
<path d="M65.4654 84.9581C64.4708 83.8116 64.9027 83.4123 65.005 80.4698C65.1073 77.5274 66.4314 55.2751 71.8851 38.2798C77.3388 21.2846 80.635 24.6103 80.635 24.6103C80.8474 24.8869 82.5297 25.6713 82.9427 26.806C83.3557 27.9407 83.1433 27.6641 80.9627 30.3201C78.7821 32.9761 77.3114 34.666 72.4716 49.8176C67.6319 64.9691 68.1576 83.4009 67.9712 85.0889C67.7848 86.777 66.4764 86.0986 65.4654 84.9581ZM66.4814 103.1C65.2972 102.711 56.5769 90.3162 57.4228 89.0586C58.853 86.8992 73.1303 88.109 74.7139 88.9294C76.2975 89.7497 67.6821 103.482 66.4814 103.1ZM70.2814 90.822C68.9626 90.3709 60.9188 90.3748 60.7365 90.7949C60.1657 91.9897 65.5728 99.6312 66.4592 98.843C67.3456 98.0548 71.6406 91.333 70.2814 90.822Z" fill="#E3F1FF"/>
</svg>

<svg width="144" height="144" fill="none" xmlns="http://www.w3.org/2000/svg"><path d="M65.465 84.958c-.994-1.146-.562-1.546-.46-4.488.102-2.943 1.426-25.195 6.88-42.19 5.454-16.995 8.75-13.67 8.75-13.67.212.277 1.895 1.061 2.308 2.196.413 1.135.2.858-1.98 3.514-2.18 2.656-3.652 4.346-8.491 19.498-4.84 15.151-4.314 33.583-4.5 35.27-.187 1.689-1.496 1.01-2.507-.13zm1.016 18.142c-1.184-.389-9.904-12.784-9.058-14.041 1.43-2.16 15.707-.95 17.29-.13 1.585.82-7.03 14.553-8.232 14.171zm3.8-12.278c-1.318-.451-9.362-.447-9.545-.027-.57 1.195 4.837 8.836 5.723 8.048.887-.788 5.182-7.51 3.822-8.021z" fill="#E3F1FF"/></svg>
